X:1
T:Title
%%score { ( 1 3 4 ) | 2 }
L:1/8
Q:1/4=100
M:4/4
K:Eb
V:1 treble nm="Grand Piano"
V:3 treble 
V:4 treble 
V:2 bass 
V:1
 EFGA EFGA | z4 G4 | z4 F4 | _DEFG z2 C2 | EFGA EFGA | FGAB z2 _D2 | BAGF B2 D2 | [B,E]6 z2 | %8
w: Howard~E.~Smith * * * * * * *||||||||
 [EAc]2 [_DEGB]2 A,2[K:bass] z E | FEDE FE z G | [EGB_d]2 [EAc]2 [_D-EG-B-]3 [DEGB] | %11
w: |||
 FEDE FE[K:bass] z E | [EAc]2 [_DEGB]2 [C-EA-]3 [CEA] | FEDE FE[K:bass] z E | %14
w: |||
 [DF]2 [DFB]2 [_DG][DE][DE][DEB] | [CEA]4 [Aca]2 z2 |] %16
w: ||
V:2
 A,,2 [E,A,C]2 E,,2 [E,A,C]2 | A,,2 [E,A,C]2 B,,2 [E,B,]2 | E,,2 [E,G,_D]2 B,,2 [E,G,]2 | %3
 E,,2 [E,G,_D]2 A,,2 [E,A,]2 | A,,2 [E,A,C]2 C,2 [E,A,C]2 | _D,2 [F,A,]2 [F,A,_D]2 [F,A,]2 | %6
 [F,,F,]2 [A,B,D]2 [B,,,B,,]2 [B,,F,A,B,]2 | [E,G,]2 _D,2 C,2 B,,2 | [A,,A,]2 [E,,E,]2 A,,2 E,,2 | %9
 [A,,A,]2 [E,,E,]2 [A,,A,]2 E,,2 | [B,,B,]2 [E,,E,]2 B,,2 E,,2 | [B,,B,]2 [E,,E,]2 [B,,B,]2 E,,2 | %12
 [A,,A,]2 [E,,E,]2 A,,2 E,,2 | [A,,A,]2 [E,,E,]2 [A,,A,]2 E,,2 | %14
 [B,,B,]2 [F,,F,]2 [B,,B,]2 [E,,E,]2 | [A,,A,]2 [E,,E,]2 [A,,,A,,]2 z2 |] %16
V:3
 x8 | EFGA z2 _D2 | _DEFG z2 D2 | z4 E4 | x8 | z4 F4 | x8 | x8 | z4 [CEA]4[K:bass] | z4 z2 E,2 | %10
 z4 B,2 E,2 | z4 z2[K:bass] E,2 | z4 A,2 E,2 | z4 z2[K:bass] E,2 | x8 | x8 |] %16
V:4
 x8 | x8 | x8 | x8 | x8 | x8 | x8 | x8 | z4 z2[K:bass] E,2 | x8 | x8 | x6[K:bass] x2 | x8 | %13
 x6[K:bass] x2 | x8 | x8 |] %16

